X: 1
T: Kalvelis (Bb/Eb)
R: polka
M: 4/4
L: 1/4
K: Bb
|: "Bb"BF FF | FF DB, | "F7"FF EC | "Bb"FF DB, \
|  "Bb"BF FF | FF DB, | "F7"FF GA | "Bb"BB "fine"Bz :| [K:Eb]
|: "Eb"B,z Ez | Gz Bz | "Bb7"BA FD | "Eb"EC B,z \
| "Bb7"B,z Dz | Fz Az |     AF DB, | "Eb"EE Ez :|
